X:362
T:Fun der Khupe
Z:Jack Campin, http://www.campin.me.uk/
F:Jack Campin's Nine-Note Tunebook
% last edit 03-02-2013
M:4/4
L:1/8
P:ABCAB
Q:1/2=96
N:part order varies
K:DDor
P:A
D4   EF^GA| ^G2AA     A2A2   |cBA2 A^GF2|A^GF2 FED2 |
D4   EF^GA| ^G2A2     A2A2   |d6      A2|d2 c2 B2A2 |
D4   EF^GA| ^G2A2     A2A2   |cBA2 A^GF2|A^GF2 FED2 |
cBcB cB A2|(3d2c2B2 (3A2^G2F2|E2E2 FED^C|D6      A2:|
P:B
d6     A2| d6    A2|d2A2 d2A2 |   d6      z2 |
d2c2 B2A2|^G3F GFED|d2c2 B2A2 |  ^G2A2- A4   |
d2c2 B2A2|^G3F GFED|E2E2 FED^C|[1 D6      A2:|\
                               [2 D8        ||
P:C
^F2A2 AGGF|^F2A2 AGGF|A^GAB cBAG|A2z2 d2z2|
^F2A2 AGGF| G6    ^G2|BA^GF GFEF|D8      |]

